X: 8
T:Marmaduke's Hornpipe
% Nottingham Music Database
S:via PR
M:4/4
L:1/4
K:D
"D"[Ad][A/2d/2][A/2d/2] [A/2d/2][d/2f/2][B/2d/2][A/2d/2]|[FA][F/2A/2][F/2A/2] [DF][DF]|"Em"[EG][Ac] [EG][Ac]|"A7"[EG][Ac] [EG][Ac]|
"D"[Ad][A/2d/2][A/2d/2] [A/2d/2][d/2f/2][B/2d/2][A/2d/2]|"D"[FA][F/2A/2][F/2A/2] [DF][DF]|"Em"[EG][Ac] "A7"[E3/2G3/2][E/2G/2]|"D"[FA][EG] [D2F2]::
"D"[df][eg] [f/2a/2][e/2g/2][f/2a/2][e/2g/2]|"G"[dg][eg] [g/2b/2][e/2g/2][g/2b/2][e/2g/2]|"D"[df][eg] [fa][d/2f/2][f/2a/2]|"Em"[eg][Ac] "A7"[A/2c/2][B/2d/2][c/2e/2][A/2c/2]|
"D"[df][eg] [f/2a/2][e/2g/2][f/2a/2][e/2g/2]|"G"[dg][eg] [g3/2b3/2][a/2c'/2]|"Em"[be'][ac'] "A7"[ga][eg]|"D"[d2f2] [df]:|


